lib/brands/icons/web-fundamentals.svg

<svg xmlns="http://www.w3.org/2000/svg" fill="none" aria-hidden="true" viewBox="0 0 48 48"><g id="web-fundamentals-Icon"><g id="Group"><path id="Vector" fill="#1C70E7" d="M17.1195 6.20398H31.175L30.4999 14.5715L37.3605 11.6966L42 24.7268L34.3482 26.9502L39.1471 33.4717L27.9935 41.796L23.7079 35.1272L19.5482 41.796L8.16501 33.4717L13.5493 26.9502L6 24.7268L10.2702 11.6966L17.6255 14.5715L17.1195 6.20398Z"/><path id="Vector_2" fill="white" d="M21.1064 10.0579H26.9943L26.4891 20.3027L35.1163 16.7612L37.1665 22.1763L27.9762 24.8228L33.8063 32.83L29.1365 36.3172L23.6134 27.9401L18.5174 36.3172L13.632 32.83L20.066 24.8228L10.7783 22.1763L12.6543 16.7612L21.7253 20.3027L21.1064 10.0579Z"/></g></g></svg>

<svg xmlns="http://www.w3.org/2000/svg" fill="none" aria-hidden="true" viewBox="0 0 48 48"><path fill="#1C70E7" d="M17.12 6.204h14.055l-.675 8.367 6.86-2.874L42 24.727l-7.652 2.223 4.8 6.522-11.155 8.324-4.285-6.669-4.16 6.669-11.383-8.324 5.384-6.522L6 24.727l4.27-13.03 7.355 2.875-.506-8.368Z"/><path fill="#fff" d="M21.107 10.058h5.888l-.506 10.245 8.628-3.542 2.05 5.415-9.19 2.647 5.83 8.007-4.67 3.487-5.523-8.377-5.096 8.377-4.886-3.487 6.434-8.007-9.287-2.647 1.876-5.415 9.07 3.542-.618-10.245Z"/></svg>
